X:1
T:Title
%%score { ( 1 4 ) | ( 2 3 ) }
L:1/8
Q:1/4=100
M:3/4
K:F
V:1 treble nm="Grand Piano"
V:4 treble 
V:2 treble 
V:3 treble 
V:1
 c2 c2 d2 | c2 A2 c2 | [Ed]4 Gc | A4 z2 | A2 A2 B2 | A2 F2 [CFA]2 | [DB]3 A [B,EG]E | F4 z2 | %8
w: Louis~Koehler * *||||||||
 c2 Ac ed | c2 A2 c2 | dc G2 c2 | A4 z2 | A2 F2 A2 | [Ec][DB] z2 [B,EA]2 | [A,F]4 z2 |] %15
w: |||||||
V:2
 [F,A,F]2 [F,A,F]2 [F,B,F]2 | [A,F]2 C2[K:bass] [F,A,F]2 | z2 z[K:treble] c[K:bass] C,2 | %3
 [F,F]4 z2 | [F,CF]2 [F,CF]2 [F,DF]2 | [CF]2 A,2 F,2 | z2 z C z G, | [F,A,]4 z2 | z2 [F,F]2 .C2 | %9
 [F,F]4 z2 | [C,B,]4 [G,E]2 | [F,A,F]4 z2 | [F,CF]2 [F,C]2 [F,CF]2 | z2 G2 C,2 | F,4 z2 |] %15
V:3
 x6 | F,4[K:bass] z2 | [C,B,]4[K:treble][K:bass] z2 | x6 | x6 | F,4 z2 | C,4 C,2 | x6 | %8
 [F,A,F]2 z A, [F,F]-[F,B,F] | A,2 C2 [F,A,F]2 | x6 | x6 | x6 | [C,G,]4 z2 | x6 |] %15
V:4
 x6 | x6 | z2 z2 [CE]2 | x6 | x6 | x6 | E4 z2 | x6 | x6 | x6 | E4 z2 | x6 | x6 | x6 | x6 |] %15

